src/assets/img/44fsf3cseyg3dhqk7w2zbpuc09x1kba3.svg

<?xml version="1.0" encoding="UTF-8"?>
<svg width="375px" height="53px" viewBox="0 0 375 53" version="1.1" xmlns="http://www.w3.org/2000/svg" xmlns:xlink="http://www.w3.org/1999/xlink">
    <!-- Generator: Sketch 52.5 (67469) - http://www.bohemiancoding.com/sketch -->
    <title>vizitka_oleg</title>
    <desc>Created with Sketch.</desc>
    <g id="vizitka_oleg" stroke="none" stroke-width="1" fill="none" fill-rule="evenodd">
        <path d="M7.95800781,23.8027344 L7.95800781,36.546875 L1,36.546875 L1,1 L13.3535156,1 C16.9017104,1 19.7011616,2.04979419 21.7519531,4.14941406 C23.8027446,6.24903394 24.828125,8.99965747 24.828125,12.4013672 C24.828125,15.819353 23.7986757,18.5740455 21.7397461,20.6655273 C19.6808165,22.7570092 16.8854343,23.8027344 13.3535156,23.8027344 L7.95800781,23.8027344 Z M7.95800781,18.2363281 L13.3535156,18.2363281 C14.8346428,18.2363281 15.9658164,17.6910862 16.7470703,16.6005859 C17.5283242,15.5100857 17.9189453,14.126636 17.9189453,12.4501953 C17.9189453,10.7574785 17.5323932,9.35368396 16.7592773,8.23876953 C15.9861615,7.1238551 14.8509189,6.56640625 13.3535156,6.56640625 L7.95800781,6.56640625 L7.95800781,18.2363281 Z" id="Combined-Shape" fill="#219502"></path>
        <path d="M51.4135551,29.0029297 L42.0385551,29.0029297 L40.1342583,36.546875 L33.1274223,36.546875 L43.137188,1 L50.3637505,1 L60.349102,36.546875 L53.3422661,36.546875 L51.4135551,29.0029297 Z M43.4545708,23.4121094 L49.9975395,23.4121094 L46.7992973,10.8388672 L46.652813,10.8388672 L43.4545708,23.4121094 Z" id="Combined-Shape" fill="#219502"></path>
        <path d="M79.5858994,22.4111328 L79.5858994,36.546875 L72.6523056,36.546875 L72.6523056,1.02441406 L84.2489853,1.02441406 C87.7483517,1.02441406 90.4949063,1.94807019 92.4887314,3.79541016 C94.4825565,5.64275012 95.479454,8.21027002 95.479454,11.4980469 C95.479454,13.3535249 95.0644191,14.95263 94.2343369,16.2954102 C93.4042546,17.6381903 92.1917016,18.7083293 90.5966415,19.5058594 C92.4195673,20.1243521 93.7338445,21.1497324 94.5395126,22.5820312 C95.3451807,24.0143301 95.7480087,25.8046768 95.7480087,27.953125 L95.7480087,30.4677734 C95.7480087,31.4443408 95.8619399,32.490066 96.0898056,33.6049805 C96.3176713,34.7198949 96.7164304,35.5296199 97.2860947,36.0341797 L97.2860947,36.546875 L90.1083603,36.546875 C89.538696,36.0260391 89.1806266,35.1796934 89.0341415,34.0078125 C88.8876564,32.8359316 88.814415,31.6396545 88.814415,30.4189453 L88.814415,28.0019531 C88.814415,26.2278557 88.4522767,24.8525439 87.7279892,23.8759766 C87.0037017,22.8994092 85.9661144,22.4111328 84.6151962,22.4111328 L79.5858994,22.4111328 Z M79.5858994,16.8691406 L84.2245712,16.8691406 C85.6405939,16.8691406 86.7148019,16.4378298 87.4472275,15.5751953 C88.179653,14.7125608 88.5458603,13.4837319 88.5458603,11.8886719 C88.5458603,10.2610596 88.179653,8.9671272 87.4472275,8.00683594 C86.7148019,7.04654468 85.6487319,6.56640625 84.2489853,6.56640625 L79.5858994,6.56640625 L79.5858994,16.8691406 Z" id="Combined-Shape" fill="#378D0A"></path>
        <polygon id="Path" fill="#219502" points="119.403751 1 125.775822 27.0986328 125.922306 27.0986328 132.367619 1 141.425236 1 141.425236 36.546875 134.516056 36.546875 134.516056 26.2197266 135.101994 12.4013672 134.955509 12.3769531 128.1684 36.546875 123.554142 36.546875 116.840275 12.5722656 116.69379 12.5966797 117.304142 26.2197266 117.304142 36.546875 110.394962 36.546875 110.394962 1"></polygon>
        <polygon id="Path" fill="#69781B" points="175.090744 20.9462891 163.152267 20.9462891 163.152267 31.0048828 177.190353 31.0048828 177.190353 36.546875 156.19426 36.546875 156.19426 1 177.141525 1 177.141525 6.56640625 163.152267 6.56640625 163.152267 15.4042969 175.090744 15.4042969"></polygon>
        <polygon id="Path" fill="#866C26" points="197.061916 31.0048828 210.709377 31.0048828 210.709377 36.546875 189.249416 36.546875 189.249416 33.0556641 202.579494 6.54199219 189.102932 6.54199219 189.102932 1 210.489651 1 210.489651 4.36914062"></polygon>
        <path d="M240.517464,29.0029297 L231.142464,29.0029297 L229.238167,36.546875 L222.231331,36.546875 L232.241096,1 L239.467659,1 L249.453011,36.546875 L242.446175,36.546875 L240.517464,29.0029297 Z M232.558479,23.4121094 L239.101448,23.4121094 L235.903206,10.8388672 L235.756721,10.8388672 L232.558479,23.4121094 Z" id="Combined-Shape" fill="#A75F32"></path>
        <polygon id="Path" fill="#C5533C" points="286.60973 36.546875 279.70055 36.546875 268.836292 13.8173828 268.689808 13.8662109 268.689808 36.546875 261.7318 36.546875 261.7318 1 268.689808 1 279.554066 23.7050781 279.70055 23.65625 279.70055 1 286.60973 1"></polygon>
        <polygon id="Path" fill="#DF4846" points="311.535004 21.7763672 308.50766 21.7763672 308.50766 36.546875 301.549652 36.546875 301.549652 1 308.50766 1 308.50766 15.453125 310.753754 15.453125 317.687347 1 326.207855 1 316.515472 17.2353516 327.013519 36.546875 318.566254 36.546875"></polygon>
        <path d="M354.819653,29.0029297 L345.444653,29.0029297 L343.540356,36.546875 L336.53352,36.546875 L346.543285,1 L353.769848,1 L363.755199,36.546875 L356.748363,36.546875 L354.819653,29.0029297 Z M346.860668,23.4121094 L353.403637,23.4121094 L350.205395,10.8388672 L350.05891,10.8388672 L346.860668,23.4121094 Z" id="Combined-Shape" fill="#F53F4E"></path>
    </g>
</svg>

<svg width="375" height="53" xmlns="http://www.w3.org/2000/svg"><g fill="none" fill-rule="evenodd"><path d="M7.958 23.803v12.744H1V1h12.354c3.548 0 6.347 1.05 8.398 3.15 2.05 2.099 3.076 4.85 3.076 8.251 0 3.418-1.03 6.173-3.088 8.265-2.06 2.091-4.855 3.137-8.386 3.137H7.958Zm0-5.567h5.396c1.48 0 2.612-.545 3.393-1.635.781-1.09 1.172-2.474 1.172-4.15 0-1.694-.387-3.097-1.16-4.212-.773-1.115-1.908-1.673-3.405-1.673H7.958v11.67ZM51.414 29.003h-9.375l-1.905 7.544h-7.007L43.137 1h7.227l9.985 35.547h-7.007l-1.928-7.544Zm-7.96-5.59h6.544l-3.199-12.574h-.146l-3.198 12.573Z" fill="#219502"/><path d="M79.586 22.411v14.136h-6.934V1.024H84.25c3.5 0 6.246.924 8.24 2.771 1.994 1.848 2.99 4.415 2.99 7.703 0 1.856-.415 3.455-1.245 4.797-.83 1.343-2.042 2.413-3.637 3.21 1.823.62 3.137 1.645 3.943 3.077.805 1.432 1.208 3.223 1.208 5.371v2.515c0 .976.114 2.022.342 3.137.228 1.115.626 1.925 1.196 2.43v.512h-7.178c-.57-.521-.927-1.367-1.074-2.54a28.91 28.91 0 0 1-.22-3.588v-2.417c0-1.774-.362-3.15-1.086-4.126-.724-.977-1.762-1.465-3.113-1.465h-5.03Zm0-5.542h4.639c1.416 0 2.49-.431 3.222-1.294.733-.862 1.099-2.091 1.099-3.686 0-1.628-.366-2.922-1.099-3.882-.732-.96-1.798-1.44-3.198-1.44h-4.663v10.302Z" fill="#378D0A"/><path fill="#219502" d="m119.404 1 6.372 26.099h.146L132.368 1h9.057v35.547h-6.909V26.22l.586-13.819-.146-.024-6.788 24.17h-4.614l-6.714-23.975-.146.025.61 13.623v10.327h-6.909V1z"/><path fill="#69781B" d="M175.09 20.946h-11.938v10.059h14.038v5.542h-20.996V1h20.948v5.566h-13.99v8.838h11.939z"/><path fill="#866C26" d="M197.062 31.005h13.647v5.542h-21.46v-3.491l13.33-26.514h-13.476V1h21.387v3.37z"/><path d="M240.517 29.003h-9.375l-1.904 7.544h-7.007L232.241 1h7.227l9.985 35.547h-7.007l-1.929-7.544Zm-7.959-5.59h6.543l-3.198-12.574h-.146l-3.199 12.573Z" fill="#A75F32"/><path fill="#C5533C" d="M286.61 36.547h-6.91l-10.864-22.73-.146.05v22.68h-6.958V1h6.958l10.864 22.705.147-.049V1h6.909z"/><path fill="#DF4846" d="M311.535 21.776h-3.027v14.77h-6.958V1h6.958v14.453h2.246L317.687 1h8.52l-9.692 16.235 10.499 19.312h-8.448z"/><path d="M354.82 29.003h-9.375l-1.905 7.544h-7.006L346.544 1h7.226l9.985 35.547h-7.007l-1.928-7.544Zm-7.96-5.59h6.544l-3.199-12.574h-.146l-3.198 12.573Z" fill="#F53F4E"/></g></svg>
